packages/sources/assets/src/assets/flag-hr.svg

<svg width="28" height="20" viewBox="0 0 28 20" fill="none" xmlns="http://www.w3.org/2000/svg">
<rect x="0.25" y="0.25" width="27.5" height="19.5" rx="1.75" fill="white" stroke="#F5F5F5" stroke-width="0.5"/>
<mask id="mask0_503_3685" style="mask-type:alpha" maskUnits="userSpaceOnUse" x="0" y="0" width="28" height="20">
<rect x="0.25" y="0.25" width="27.5" height="19.5" rx="1.75" fill="white" stroke="white" stroke-width="0.5"/>
</mask>
<g mask="url(#mask0_503_3685)">
<path fill-rule="evenodd" clip-rule="evenodd" d="M0 6.66667H28V0H0V6.66667Z" fill="#FF202D"/>
<path opacity="0.5" fill-rule="evenodd" clip-rule="evenodd" d="M10.6667 5.33332L11.3334 4.66666L12 5.33332V6.66666H10.6667V5.33332ZM13.3334 5.33332L14 4.66666L14.6667 5.33332V6.66666H13.3334V5.33332ZM16.6667 4.66666L16 5.33332V6.66666H17.3334V5.33332L16.6667 4.66666Z" fill="#1895DB"/>
<path opacity="0.5" fill-rule="evenodd" clip-rule="evenodd" d="M12.6667 4.66666L12 5.33332V6.66666H13.3333V5.33332L12.6667 4.66666ZM15.3333 4.66666L14.6667 5.33332V6.66666H16V5.33332L15.3333 4.66666Z" fill="#191F94"/>
<path fill-rule="evenodd" clip-rule="evenodd" d="M0 20H28V13.3333H0V20Z" fill="#2027AC"/>
<path fill-rule="evenodd" clip-rule="evenodd" d="M12 6.66666H11.3334L10.6667 7.99999H12V9.33332H10.6667V10.6667H12V12H10.6667V13.3333H12V14.6667H13.3334V13.3333H14.6667V14.6667H16V13.3333H17.3334V12H16V10.6667H17.3334V9.33332H16V7.99999H17.3334L16.6667 6.66666H16V7.99999H14.6667V6.66666H13.3334V7.99999H12V6.66666ZM13.3334 9.33332V7.99999H14.6667V9.33332H13.3334ZM13.3334 10.6667V9.33332H12V10.6667H13.3334ZM14.6667 10.6667H13.3334V12H12V13.3333H13.3334V12H14.6667V13.3333H16V12H14.6667V10.6667ZM14.6667 10.6667H16V9.33332H14.6667V10.6667Z" fill="url(#paint0_linear_503_3685)"/>
</g>
<defs>
<linearGradient id="paint0_linear_503_3685" x1="10.6667" y1="6.66666" x2="10.6667" y2="14.6667" gradientUnits="userSpaceOnUse">
<stop stop-color="#FF212E"/>
<stop offset="1" stop-color="#FD0D1B"/>
</linearGradient>
</defs>
</svg>

<svg width="28" height="20" fill="none" xmlns="http://www.w3.org/2000/svg"><rect x=".25" y=".25" width="27.5" height="19.5" rx="1.75" fill="#fff" stroke="#F5F5F5" stroke-width=".5"/><mask id="a" style="mask-type:alpha" maskUnits="userSpaceOnUse" x="0" y="0" width="28" height="20"><rect x=".25" y=".25" width="27.5" height="19.5" rx="1.75" fill="#fff" stroke="#fff" stroke-width=".5"/></mask><g mask="url(#a)" fill-rule="evenodd" clip-rule="evenodd"><path d="M0 6.667h28V0H0v6.667Z" fill="#FF202D"/><path opacity=".5" d="m10.667 5.333.666-.666.667.666v1.334h-1.333V5.333Zm2.666 0L14 4.667l.667.666v1.334h-1.334V5.333Zm3.334-.666L16 5.333v1.334h1.333V5.333l-.666-.666Z" fill="#1895DB"/><path opacity=".5" d="M12.667 4.667 12 5.333v1.334h1.333V5.333l-.666-.666Zm2.666 0-.666.666v1.334H16V5.333l-.667-.666Z" fill="#191F94"/><path d="M0 20h28v-6.667H0V20Z" fill="#2027AC"/><path d="M12 6.667h-.667L10.667 8H12v1.333h-1.333v1.334H12V12h-1.333v1.333H12v1.334h1.333v-1.334h1.334v1.334H16v-1.334h1.333V12H16v-1.333h1.333V9.333H16V8h1.333l-.666-1.333H16V8h-1.333V6.667h-1.334V8H12V6.667Zm1.333 2.666V8h1.334v1.333h-1.334Zm0 1.334V9.333H12v1.334h1.333Zm1.334 0h-1.334V12H12v1.333h1.333V12h1.334v1.333H16V12h-1.333v-1.333Zm0 0H16V9.333h-1.333v1.334Z" fill="url(#b)"/></g><defs><linearGradient id="b" x1="10.667" y1="6.667" x2="10.667" y2="14.667" gradientUnits="userSpaceOnUse"><stop stop-color="#FF212E"/><stop offset="1" stop-color="#FD0D1B"/></linearGradient></defs></svg>
